!! J.S. Bach "Presto" from Sonata No. 1, for solo violin, BWV 1001.
!! From 'Neue Ausgabe Saemtlicher Werke' Serie VI: Kammermusikwerke,
!! Band 1 ('Werke fuer Violine') Baerenreiter Kassel (Basel) 1958; pp.8-9
!! This file has been error-checked using the double-entry method.
!! NOTE:  Double-stops occur in bars 53 & 54 (repeated at bar 107 & 108)
!!        and at bars 189 & 190 (repeated at bars 271 & 272).
!! NOTE:  The repeats at the end of bar 54 and at the end of the work
!!        have been expanded in this encoding.
**kern
*M3/8
=1
16gg
16bb-
16gg
16dd
16gg
16dd
=2
16b-
16dd
16b-
16g
16b-
16g
=3
16d
16g
16d
16B-
16d
16B-
=4
16G
16B-
16d
16g
16b-
16dd
=5
16gg
{16dd
16cc
16b-
16a
16g}
=6
16f#
16d
16f#
16a
16dd
16ff#
=7
16aa
{16ee-
16dd
16cc
16b-
16a}
=8
16g
16d
16g
16b-
16dd
16gg
=9
16bb-
16gg
16ee-
16cc
16ee-
16gg
=10
16aa
16ff
16dd
16b-
16dd
16ff
=11
16gg
16ee-
16cc
16a
16cc
16ee-
=12
16d
16gg
{16ff#
16gg
16aa}
16cc
=13
16g
16cc
{16b-
16cc
16dd}
16f
=14
16c
16ff
{16ee
16ff
16gg}
16b-
=15
16f
16b-
{16a
16b-
16cc}
16e-
=16
16B-
16ee-
{16dd
16ee-
16ff}
16a-
=17
16e-
16B-
16e-
16g
16e-
16g
=18
16cc
16g
16cc
16ee-
16cc
16ee-
=19
16f
16c
16f
16a
16f
16a
=20
16dd
16a
16dd
16ff
16dd
16ff
=21
16g
16d
16g
16b-
16g
16b-
=22
16ee-
16b-
16ee-
16gg
16ee-
16gg
=23
16a
16f
16a
16cc
16a
16cc
=24
16ff
16cc
16ff
16aa
16ff
16aa
=25
{16b-
16cc
16dd}
16bb-
16aa
16bb-
=26
{16cc
16dd
16ee-}
16bb-
16aa
16bb-
=27
{16dd
16ee-
16ff}
16bb-
16aa
16bb-
=28
{16ee-
16ff
16gg}
16bb-
16aa
16bb-
=29
{16a
16cc
16ee-}
16gg
16ff
16ee-
=30
{16dd
16b-}
{16ee-
16b-}
16ff
16a-
=31
{16g
16an
16b-}
16d
16c
16a
=32
16B-
{16d
16c
16B-
16A
16G}
=33
16A
{16g
16f#
16e
16d}
{16cc
=34
16b-
16a
16g}
{16ffn
16ee
16dd
=35
16cc#}
{16bb-
16aa
16gg
16ff
16ee}
=36
{16ff
16dd}
{16gg
16dd}
16aa
16ccn
=37
16b-
{16aa
16gg
16ff
16ee
16dd}
=38
{16ee
16cc}
{16ff
16cc}
16gg
16b-
=39
16a
{16gg
16ff
16ee
16dd
16cc#}
=40
{16dd
16b-}
{16ee
16b-}
16ff
16a
=41
16g
{16ff
16ee
16dd
16cc#
16bn}
=42
{16cc#
16a}
{16dd
16a}
16ee
16g
=43
16f
16dd
16b-
16g
16e
16ccn
=44
16d
16b-
16g
16e
16c
16a
=45
16B-
16g
16e
16c#
16A
16f
=46
16G
{16f
16e
16d
16c#
16Bn}
=47
16A
16d
{16c#
16e}
{16d
16f}
=48
16A
16e
{16d
16f}
{16e
16g}
=49
16A
16f
{16e
16g}
{16f
16a}
=50
16B-
16g
{16f#
16a}
{16g
16b-}
=51
16c#
{16b-
16a
16g
16fn
16e}
=52
16f
16d
16f
16a
16dd
16ff
=53
16aa
16dd
8a
8A 8g 8cc#
=54
4.d 4.f# 4.dd
=1
16gg
16bb-
16gg
16dd
16gg
16dd
=2
16b-
16dd
16b-
16g
16b-
16g
=3
16d
16g
16d
16B-
16d
16B-
=4
16G
16B-
16d
16g
16b-
16dd
=5
16gg
{16dd
16cc
16b-
16a
16g}
=6
16f#
16d
16f#
16a
16dd
16ff#
=7
16aa
{16ee-
16dd
16cc
16b-
16a}
=8
16g
16d
16g
16b-
16dd
16gg
=9
16bb-
16gg
16ee-
16cc
16ee-
16gg
=10
16aa
16ff
16dd
16b-
16dd
16ff
=11
16gg
16ee-
16cc
16a
16cc
16ee-
=12
16d
16gg
{16ff#
16gg
16aa}
16cc
=13
16g
16cc
{16b-
16cc
16dd}
16f
=14
16c
16ff
{16ee
16ff
16gg}
16b-
=15
16f
16b-
{16a
16b-
16cc}
16e-
=16
16B-
16ee-
{16dd
16ee-
16ff}
16a-
=17
16e-
16B-
16e-
16g
16e-
16g
=18
16cc
16g
16cc
16ee-
16cc
16ee-
=19
16f
16c
16f
16a
16f
16a
=20
16dd
16a
16dd
16ff
16dd
16ff
=21
16g
16d
16g
16b-
16g
16b-
=22
16ee-
16b-
16ee-
16gg
16ee-
16gg
=23
16a
16f
16a
16cc
16a
16cc
=24
16ff
16cc
16ff
16aa
16ff
16aa
=25
{16b-
16cc
16dd}
16bb-
16aa
16bb-
=26
{16cc
16dd
16ee-}
16bb-
16aa
16bb-
=27
{16dd
16ee-
16ff}
16bb-
16aa
16bb-
=28
{16ee-
16ff
16gg}
16bb-
16aa
16bb-
=29
{16a
16cc
16ee-}
16gg
16ff
16ee-
=30
{16dd
16b-}
{16ee-
16b-}
16ff
16a-
=31
{16g
16an
16b-}
16d
16c
16a
=32
16B-
{16d
16c
16B-
16A
16G}
=33
16A
{16g
16f#
16e
16d}
{16cc
=34
16b-
16a
16g}
{16ffn
16ee
16dd
=35
16cc#}
{16bb-
16aa
16gg
16ff
16ee}
=36
{16ff
16dd}
{16gg
16dd}
16aa
16ccn
=37
16b-
{16aa
16gg
16ff
16ee
16dd}
=38
{16ee
16cc}
{16ff
16cc}
16gg
16b-
=39
16a
{16gg
16ff
16ee
16dd
16cc#}
=40
{16dd
16b-}
{16ee
16b-}
16ff
16a
=41
16g
{16ff
16ee
16dd
16cc#
16bn}
=42
{16cc#
16a}
{16dd
16a}
16ee
16g
=43
16f
16dd
16b-
16g
16e
16ccn
=44
16d
16b-
16g
16e
16c
16a
=45
16B-
16g
16e
16c#
16A
16f
=46
16G
{16f
16e
16d
16c#
16Bn}
=47
16A
16d
{16c#
16e}
{16d
16f}
=48
16A
16e
{16d
16f}
{16e
16g}
=49
16A
16f
{16e
16g}
{16f
16a}
=50
16B-
16g
{16f#
16a}
{16g
16b-}
=51
16c#
{16b-
16a
16g
16fn
16e}
=52
16f
16d
16f
16a
16dd
16ff
=53
16aa
16dd
8a
8A 8g 8cc#
=54
4.d 4.f# 4.dd
=55
16d
16A
16d
16f#
16d
16f#
=56
16a
16f#
16a
16dd
16a
16dd
=57
16ff#
16dd
16ff#
16aa
16ff#
16aa
=58
16ddd
16aa
16ff#
16dd
16a
16f#
=59
{16d
16e
16f#
16g
16a
16b-
=60
16cc}
16ee-
16cc
16a
16cc
16a
=61
16f#
16d
16f#
16a
16dd
16cc
=62
16b-
16d
16b-
16g
16d
16B-
=63
{16G
16A
16B-
16c
16d
16e-
=64
16f}
16a-
16f
16d
16f
16d
=65
16Bn
16G
16B
16d
16g
16f
=66
16e-
16c
16e-
16g
16cc
16dd
=67
16ee-
16cc
16a-
16f
16a-
16cc
=68
16dd
16b-
16g
16e-
16g
16b-
=69
16cc
16a-
16f
16d
16f
16a-
=70
16G
16cc
{16bn
16cc
16dd}
16f
=71
16c
16ff
{16ee-
16ff
16gg}
16b-
=72
16f
16b-
{16a-
16b-
16cc}
16e-
=73
16B-
16ee-
{16dd
16ee-
16ff}
16a-
=74
16e-
16a-
{16g
16a-
16b-}
16d-
=75
{16A-
16c
16f
16a-
16g
16f}
=76
{16Bn
16d
16f
16a-
16g
16f}
=77
{16c
16en
16f
16a-
16g
16f}
=78
{16d
16f
16bn
16cc
16dd
16f}
=79
{16e-
16g
16cc
16dd
16ee-
16cc}
=80
{16aa-
16gg
16ff
16ee-
16dd
16cc}
=81
16gg
16dd
16ee-
16cc
16g
16bn
=82
16c
{16f
16e-
16d
16c
16B-}
=83
16A
16c
16f
16c
16f
16a
=84
16f
16a
16cc
16a
16cc
16ee-
=85
16cc
16ee-
{16aa
16gg
16ff
16ee-}
=86
{16dd
16cc
16b-
16cc
16dd
16een}
=87
16ff#
16aa
16ccc
16aa
16ff#
16aa
=88
16ff#
16cc
16ff#
16cc
16a
16cc
=89
16a
16f#
16a
16f#
16d
16cc
=90
16b-
16g
16b-
16g
16en
16dd
=91
16cc
16a
16cc
16a
16f#
16ee-
=92
16dd
16b-
16dd
16b-
16g
16ffn
=93
16ee-
16cc
16ee-
16cc
16a
16gg
=94
16ff#
{16dd
16een
16ff#
16gg
16aa}
=95
16bb-
16dd
16gg
16bb-
16cc
16ee-
=96
16aa
16ff
16dd
16b-
16dd
16ff
=97
16gg
16b-
16ee-
16gg
16a
16cc
=98
16ff
16dd
16b-
16g
16b-
16dd
=99
16ee-
16g
16cc
16ee-
16f
16a
=100
16dd
16b-
16g
16en
16g
16b-
=101
{16cc
16a}
{16b-
16g}
16f#
16a
=102
{16d
16e
16f#
16g
16a
16b-}
=103
{16cc
16ee-}
{16dd
16gg}
{16ff#
16bb-}
=104
{16aa
16gg
16ff#
16een
16dd
16cc}
=105
16b-
16ee-
{16dd
16b-}
{16cc
16a}
=106
16f
16dd
{16cc
16a}
{16b-
16g}
=107
16e-
16cc
{16b-
16g}
{16a
16f#}
=108
16d
16b-
{16a
16f#}
{16g
16e-}
=109
16c
16a
{16g
16en}
{16f#
16d}
=110
16B-
{16dd
16cc
16b-
16a
16g}
=111
{16ee-
16dd
16cc}
{16bb-
16aa
16gg}
=112
{16ff#
16gg
16aa}
16dd
16ee-
16cc
=113
{16fn
16bn
16dd}
16a-
16g
16f
=114
16en
16g
16cc
16ee
16gg
16b-
=115
{16e-
16a
16cc}
16g
16f
16e-
=116
16d
16f
16b-
16dd
16ff
16a-
=117
16g
16ee-
16b-
16g
{16e-
16d
=118
16c}
{16ee-
16cc
16b-
16a
16g
=119
16f#}
16dd
16a
16f#
{16d
16c
=120
16B-}
{16dd
16b-
16a
16g
16fn
=121
16e}
16c
16g
16B-
16A
16g
=122
16f#
16d
16a
16c
16B-
16a
=123
16g
16e-
16b-
16d
16c
16b-
=124
16a
16f
16cc
16e-
16d
16cc
=125
16b-
16g
16dd
16f
16en
16dd
=126
16cc
16a
16ee-
16g
16f#
16ee-
=127
16dd
16b-
16gg
16b-
16a
16cc
=128
16b-
16g
16f#
16a
16d
16c
=129
16B-
16g
{16f#
16a}
{16g
16b-}
=130
16c
16a
{16g
16b-}
{16a
16cc}
=131
16d
16b-
{16a
16cc}
{16b-
16dd}
=132
16e-
16cc
{16bn
16dd}
{16cc
16ee-}
=133
16f#
{16ee-
16dd
16cc
16b-
16a}
=134
16b-
16dd
16gg
16bb-
16gg
16dd
=135
16b-
16g
8d
8d 8cc 8ff#
=136
4.G 4.d 4.b- 4.gg
=55
16d
16A
16d
16f#
16d
16f#
=56
16a
16f#
16a
16dd
16a
16dd
=57
16ff#
16dd
16ff#
16aa
16ff#
16aa
=58
16ddd
16aa
16ff#
16dd
16a
16f#
=59
{16d
16e
16f#
16g
16a
16b-
=60
16cc}
16ee-
16cc
16a
16cc
16a
=61
16f#
16d
16f#
16a
16dd
16cc
=62
16b-
16d
16b-
16g
16d
16B-
=63
{16G
16A
16B-
16c
16d
16e-
=64
16f}
16a-
16f
16d
16f
16d
=65
16Bn
16G
16B
16d
16g
16f
=66
16e-
16c
16e-
16g
16cc
16dd
=67
16ee-
16cc
16a-
16f
16a-
16cc
=68
16dd
16b-
16g
16e-
16g
16b-
=69
16cc
16a-
16f
16d
16f
16a-
=70
16G
16cc
{16bn
16cc
16dd}
16f
=71
16c
16ff
{16ee-
16ff
16gg}
16b-
=72
16f
16b-
{16a-
16b-
16cc}
16e-
=73
16B-
16ee-
{16dd
16ee-
16ff}
16a-
=74
16e-
16a-
{16g
16a-
16b-}
16d-
=75
{16A-
16c
16f
16a-
16g
16f}
=76
{16Bn
16d
16f
16a-
16g
16f}
=77
{16c
16en
16f
16a-
16g
16f}
=78
{16d
16f
16bn
16cc
16dd
16f}
=79
{16e-
16g
16cc
16dd
16ee-
16cc}
=80
{16aa-
16gg
16ff
16ee-
16dd
16cc}
=81
16gg
16dd
16ee-
16cc
16g
16bn
=82
16c
{16f
16e-
16d
16c
16B-}
=83
16A
16c
16f
16c
16f
16a
=84
16f
16a
16cc
16a
16cc
16ee-
=85
16cc
16ee-
{16aa
16gg
16ff
16ee-}
=86
{16dd
16cc
16b-
16cc
16dd
16een}
=87
16ff#
16aa
16ccc
16aa
16ff#
16aa
=88
16ff#
16cc
16ff#
16cc
16a
16cc
=89
16a
16f#
16a
16f#
16d
16cc
=90
16b-
16g
16b-
16g
16en
16dd
=91
16cc
16a
16cc
16a
16f#
16ee-
=92
16dd
16b-
16dd
16b-
16g
16ffn
=93
16ee-
16cc
16ee-
16cc
16a
16gg
=94
16ff#
{16dd
16een
16ff#
16gg
16aa}
=95
16bb-
16dd
16gg
16bb-
16cc
16ee-
=96
16aa
16ff
16dd
16b-
16dd
16ff
=97
16gg
16b-
16ee-
16gg
16a
16cc
=98
16ff
16dd
16b-
16g
16b-
16dd
=99
16ee-
16g
16cc
16ee-
16f
16a
=100
16dd
16b-
16g
16en
16g
16b-
=101
{16cc
16a}
{16b-
16g}
16f#
16a
=102
{16d
16e
16f#
16g
16a
16b-}
=103
{16cc
16ee-}
{16dd
16gg}
{16ff#
16bb-}
=104
{16aa
16gg
16ff#
16een
16dd
16cc}
=105
16b-
16ee-
{16dd
16b-}
{16cc
16a}
=106
16f
16dd
{16cc
16a}
{16b-
16g}
=107
16e-
16cc
{16b-
16g}
{16a
16f#}
=108
16d
16b-
{16a
16f#}
{16g
16e-}
=109
16c
16a
{16g
16en}
{16f#
16d}
=110
16B-
{16dd
16cc
16b-
16a
16g}
=111
{16ee-
16dd
16cc}
{16bb-
16aa
16gg}
=112
{16ff#
16gg
16aa}
16dd
16ee-
16cc
=113
{16fn
16bn
16dd}
16a-
16g
16f
=114
16en
16g
16cc
16ee
16gg
16b-
=115
{16e-
16a
16cc}
16g
16f
16e-
=116
16d
16f
16b-
16dd
16ff
16a-
=117
16g
16ee-
16b-
16g
{16e-
16d
=118
16c}
{16ee-
16cc
16b-
16a
16g
=119
16f#}
16dd
16a
16f#
{16d
16c
=120
16B-}
{16dd
16b-
16a
16g
16fn
=121
16e}
16c
16g
16B-
16A
16g
=122
16f#
16d
16a
16c
16B-
16a
=123
16g
16e-
16b-
16d
16c
16b-
=124
16a
16f
16cc
16e-
16d
16cc
=125
16b-
16g
16dd
16f
16en
16dd
=126
16cc
16a
16ee-
16g
16f#
16ee-
=127
16dd
16b-
16gg
16b-
16a
16cc
=128
16b-
16g
16f#
16a
16d
16c
=129
16B-
16g
{16f#
16a}
{16g
16b-}
=130
16c
16a
{16g
16b-}
{16a
16cc}
=131
16d
16b-
{16a
16cc}
{16b-
16dd}
=132
16e-
16cc
{16bn
16dd}
{16cc
16ee-}
=133
16f#
{16ee-
16dd
16cc
16b-
16a}
=134
16b-
16dd
16gg
16bb-
16gg
16dd
=135
16b-
16g
8d
8d 8cc 8ff#
=136
4.G 4.d 4.b- 4.gg
==
*-
